src/components/00-materials/images-raw/Plaster Crutch.svg

<svg width="96" height="96" viewBox="0 0 96 96" fill="none" xmlns="http://www.w3.org/2000/svg">
<path d="M57.92 28.1199C56.6371 28.1678 55.368 27.8416 54.2673 27.1811C53.1665 26.5206 52.2814 25.5543 51.72 24.3999C50.06 27.8099 48.09 30.5999 43.04 30.5999H38.04V37.9999C38.04 43.7899 41.53 49.1599 47.96 49.1599C54.39 49.1599 57.92 43.8299 57.92 37.9999V28.1199Z" stroke="#00008F" stroke-width="2" stroke-linecap="round" stroke-linejoin="round"/>
<path d="M57.92 40.52C57.92 40.52 64.12 38.04 64.12 29.36V26.88C64.12 23.16 64.12 18.2 59.12 18.2C56.84 14.33 54.2 12 48 12H46.76C42.8297 12.0518 39.0749 13.6361 36.2955 16.4155C33.5161 19.1949 31.9318 22.9497 31.88 26.88V29.36C31.88 38.04 38.08 40.52 38.08 40.52M40.56 45.82V51.68L44.47 58.2M55.44 45.71V51.68M59 82C68 81 75 78 75 72V65C75 59.42 70.39 54.29 64.41 53.44L55.41 51.68M65 74V80.72M31 63V66M21 72L55 52M62 53L42 85" stroke="#00008F" stroke-width="2" stroke-linecap="round" stroke-linejoin="round"/>
<path d="M40.56 51.6802L31.56 53.4402C25.61 54.2902 21 59.4202 21 65.0002V72.0002C21 78.0002 25 85.0002 34 85.0002H53.5C55.2239 85.0002 56.8772 84.3154 58.0962 83.0964C59.3152 81.8774 60 80.2241 60 78.5002C60 77.6466 59.8319 76.8013 59.5052 76.0127C59.1786 75.2241 58.6998 74.5076 58.0962 73.904C57.4926 73.3004 56.7761 72.8216 55.9874 72.495C55.1988 72.1683 54.3536 72.0002 53.5 72.0002H50.13" stroke="#00008F" stroke-width="2" stroke-linecap="round" stroke-linejoin="round"/>
</svg>

<svg width="96" height="96" viewBox="0 0 96 96" fill="none" xmlns="http://www.w3.org/2000/svg"><path d="M57.92 28.12a6.619 6.619 0 01-6.2-3.72c-1.66 3.41-3.63 6.2-8.68 6.2h-5V38c0 5.79 3.49 11.16 9.92 11.16s9.96-5.33 9.96-11.16v-9.88z" stroke="#00008F" stroke-width="2" stroke-linecap="round" stroke-linejoin="round"/><path d="M57.92 40.52s6.2-2.48 6.2-11.16v-2.48c0-3.72 0-8.68-5-8.68C56.84 14.33 54.2 12 48 12h-1.24a15.08 15.08 0 00-14.88 14.88v2.48c0 8.68 6.2 11.16 6.2 11.16m2.48 5.3v5.86l3.91 6.52m10.97-12.49v5.97M59 82c9-1 16-4 16-10v-7c0-5.58-4.61-10.71-10.59-11.56l-9-1.76M65 74v6.72M31 63v3m-10 6l34-20m7 1L42 85" stroke="#00008F" stroke-width="2" stroke-linecap="round" stroke-linejoin="round"/><path d="M40.56 51.68l-9 1.76C25.61 54.29 21 59.42 21 65v7c0 6 4 13 13 13h19.5a6.5 6.5 0 100-13h-3.37" stroke="#00008F" stroke-width="2" stroke-linecap="round" stroke-linejoin="round"/></svg>
